apps/web/public/twitter.svg

<svg width="22" height="22" viewBox="0 0 22 22" fill="none" xmlns="http://www.w3.org/2000/svg">
<path d="M18.807 6.99704C18.82 7.17204 18.82 7.34604 18.82 7.52004C18.82 12.845 14.767 18.981 7.36001 18.981C5.07801 18.981 2.95801 18.32 1.17401 17.172C1.49801 17.209 1.81001 17.222 2.14701 17.222C4.03001 17.222 5.76301 16.586 7.14801 15.501C5.37701 15.464 3.89301 14.304 3.38101 12.708C3.63001 12.745 3.88001 12.77 4.14201 12.77C4.50301 12.77 4.86601 12.72 5.20301 12.633C3.35601 12.259 1.97301 10.638 1.97301 8.68004V8.63004C2.51001 8.92904 3.13301 9.11604 3.79301 9.14104C2.70801 8.41904 1.99701 7.18404 1.99701 5.78704C1.99701 5.03904 2.19601 4.35304 2.54501 3.75504C4.52801 6.19804 7.50901 7.79504 10.851 7.97004C10.789 7.67004 10.751 7.35904 10.751 7.04704C10.751 4.82704 12.547 3.01904 14.779 3.01904C15.939 3.01904 16.986 3.50504 17.722 4.29104C18.632 4.11604 19.504 3.77904 20.278 3.31804C19.979 4.25304 19.342 5.03904 18.507 5.53804C19.318 5.45004 20.104 5.22604 20.826 4.91404C20.278 5.71204 19.593 6.42304 18.807 6.99704Z" fill="#141414"/>
</svg>

<svg xmlns="http://www.w3.org/2000/svg" viewBox="0 0 19.65 15.96"><path d="M18.81,7c0,.17,0,.35,0,.52A11.38,11.38,0,0,1,7.36,19a11.4,11.4,0,0,1-6.19-1.81,7.94,7.94,0,0,0,1,0,8.05,8.05,0,0,0,5-1.72,4,4,0,0,1-3.77-2.79,6.32,6.32,0,0,0,.76.06,4.11,4.11,0,0,0,1.06-.14A4,4,0,0,1,2,8.68v0a4,4,0,0,0,1.82.51A4,4,0,0,1,2,5.79a4,4,0,0,1,.55-2A11.43,11.43,0,0,0,10.85,8a4.71,4.71,0,0,1-.1-.92,4,4,0,0,1,7-2.76,7.93,7.93,0,0,0,2.56-1,4.07,4.07,0,0,1-1.77,2.22,8,8,0,0,0,2.32-.63A8.91,8.91,0,0,1,18.81,7Z" transform="translate(-1.17 -3.02)" style="fill:#fff"/></svg>
